theme-base/src/main/assets/themes/mapsforgeV3/base/symbols/db_poi_info_square_rounded.svg

<svg enable-background="new 0 0 48 48" height="48" viewBox="0 0 48 48" width="48" xmlns="http://www.w3.org/2000/svg"><path d="m42 38c0 2.209-1.791 4-4 4h-28c-2.209 0-4-1.791-4-4v-28c0-2.209 1.791-4 4-4h28c2.209 0 4 1.791 4 4z"/><path d="m26.809 19.122v14.948c0 1.334.15 2.188.465 2.563.308.376.914.583 1.824.633v.734h-10.195v-.732c.831-.014 1.448-.258 1.855-.732.26-.309.389-1.129.389-2.465v-10.998c0-1.332-.153-2.188-.463-2.56-.307-.373-.903-.586-1.78-.633v-.758zm-2.833-9.122c.877 0 1.622.304 2.233.915.609.611.914 1.345.914 2.207 0 .861-.309 1.595-.928 2.196-.615.602-1.357.902-2.219.902-.861 0-1.592-.301-2.194-.902-.602-.602-.902-1.335-.902-2.196 0-.862.3-1.595.902-2.207.602-.611 1.333-.915 2.194-.915z" fill="#fff"/></svg>

<?xml version="1.0" encoding="utf-8"?>
<!-- Generator: Adobe Illustrator 15.0.2, SVG Export Plug-In . SVG Version: 6.00 Build 0)  -->
<!DOCTYPE svg PUBLIC "-//W3C//DTD SVG 1.1//EN" "http://www.w3.org/Graphics/SVG/1.1/DTD/svg11.dtd">
<svg version="1.1" id="Vrstva_3" xmlns="http://www.w3.org/2000/svg" xmlns:xlink="http://www.w3.org/1999/xlink" x="0px" y="0px"
	 width="48px" height="48px" viewBox="0 0 48 48" enable-background="new 0 0 48 48" xml:space="preserve">
<path d="M42,38c0,2.209-1.791,4-4,4H10c-2.209,0-4-1.791-4-4V10c0-2.209,1.791-4,4-4h28c2.209,0,4,1.791,4,4V38z"/>
<g>
	<path fill="#FFFFFF" d="M26.809,19.122V34.07c0,1.334,0.15,2.188,0.465,2.563c0.308,0.376,0.914,0.583,1.824,0.633V38H18.903
		v-0.732c0.831-0.014,1.448-0.258,1.855-0.732c0.26-0.309,0.389-1.129,0.389-2.465V23.073c0-1.332-0.153-2.188-0.463-2.56
		c-0.307-0.373-0.903-0.586-1.78-0.633v-0.758H26.809z M23.976,10c0.877,0,1.622,0.304,2.233,0.915
		c0.609,0.611,0.914,1.345,0.914,2.207c0,0.861-0.309,1.595-0.928,2.196c-0.615,0.602-1.357,0.902-2.219,0.902
		c-0.861,0-1.592-0.301-2.194-0.902c-0.602-0.602-0.902-1.335-0.902-2.196c0-0.862,0.3-1.595,0.902-2.207
		C22.384,10.304,23.115,10,23.976,10z"/>
</g>
</svg>
